icons/svg/seamark_small/obstruction_foul_ground.svg

<?xml version="1.0" encoding="UTF-8" standalone="no"?>
<!-- Created with Inkscape (http://www.inkscape.org/) -->

<svg
   xmlns:dc="http://purl.org/dc/elements/1.1/"
   xmlns:cc="http://creativecommons.org/ns#"
   xmlns:rdf="http://www.w3.org/1999/02/22-rdf-syntax-ns#"
   xmlns:svg="http://www.w3.org/2000/svg"
   xmlns="http://www.w3.org/2000/svg"
   xmlns:sodipodi="http://sodipodi.sourceforge.net/DTD/sodipodi-0.dtd"
   xmlns:inkscape="http://www.inkscape.org/namespaces/inkscape"
   version="1.0"
   width="580"
   height="580"
   id="svg2"
   sodipodi:version="0.32"
   inkscape:version="0.48.4 r9939"
   sodipodi:docname="restricted_area_water_skiing.svg"
   inkscape:output_extension="org.inkscape.output.svg.inkscape">
  <metadata
     id="metadata2975">
    <rdf:RDF>
      <cc:Work
         rdf:about="">
        <dc:format>image/svg+xml</dc:format>
        <dc:type
           rdf:resource="http://purl.org/dc/dcmitype/StillImage" />
        <cc:license
           rdf:resource="http://web.resource.org/cc/PublicDomain" />
        <dc:language>en</dc:language>
        <dc:title></dc:title>
      </cc:Work>
    </rdf:RDF>
  </metadata>
  <sodipodi:namedview
     inkscape:window-height="1004"
     inkscape:window-width="1920"
     inkscape:pageshadow="2"
     inkscape:pageopacity="0.0"
     guidetolerance="10.0"
     gridtolerance="10.0"
     objecttolerance="10.0"
     borderopacity="1.0"
     bordercolor="#666666"
     pagecolor="#ffffff"
     id="base"
     inkscape:zoom="0.65172414"
     inkscape:cx="688.95336"
     inkscape:cy="325.79756"
     inkscape:window-x="1680"
     inkscape:window-y="0"
     inkscape:current-layer="svg2"
     showgrid="false"
     inkscape:window-maximized="1" />
  <defs
     id="defs4">
    <inkscape:perspective
       sodipodi:type="inkscape:persp3d"
       inkscape:vp_x="0 : 290 : 1"
       inkscape:vp_y="0 : 1000 : 0"
       inkscape:vp_z="580 : 290 : 1"
       inkscape:persp3d-origin="290 : 193.33333 : 1"
       id="perspective10" />
  </defs>
  <path
     style="font-size:medium;font-style:normal;font-variant:normal;font-weight:normal;font-stretch:normal;text-indent:0;text-align:start;text-decoration:none;line-height:normal;letter-spacing:normal;word-spacing:normal;text-transform:none;direction:ltr;block-progression:tb;writing-mode:lr-tb;text-anchor:start;baseline-shift:baseline;opacity:0.42608696;color:#000000;fill:#acd8f3;fill-opacity:1;fill-rule:nonzero;stroke:#a35151;stroke-width:0;stroke-linecap:round;stroke-linejoin:miter;stroke-miterlimit:4;stroke-opacity:1;stroke-dashoffset:0;marker:none;visibility:visible;display:inline;overflow:visible;enable-background:accumulate;font-family:Sans;-inkscape-font-specification:Sans"
     d="m 291.1875,1.84375 c -9.78351,0.2044203 -19.4881,3.3196769 -27.56264,8.847844 -8.07454,5.528167 -14.48917,13.4488 -18.21861,22.495906 0,0 -1.03655,2.286672 -3.25,5.40625 -0.19359,0.272839 -0.34476,0.349272 -0.53125,0.5625 -73.69616,12.287145 -137.91087,51.815066 -176.84375,106.53125 -12.398389,1.17704 -24.284591,7.11623 -32.670106,16.32431 -8.385516,9.20807 -13.189787,21.59656 -13.204894,34.05069 0,29.57284 6.507597,72.79123 36.59375,115.90625 6.217145,8.89795 15.371012,15.70703 25.680988,19.10273 10.309976,3.3957 21.718542,3.35908 32.006512,-0.10273 29.26353,-9.84679 48.94234,-26.79811 64.28125,-40.71875 15.33891,-13.92064 26.0625,-26.625 26.0625,-26.625 5.82469,-6.90986 9.74978,-15.40505 11.23639,-24.31926 1.48662,-8.91421 0.53074,-18.2234 -2.73639,-26.64949 1.65319,-1.64762 3.33102,-3.28199 5.0625,-4.84375 l 0,115.34375 c -10.49045,2.9961 -19.95099,9.48521 -26.52373,18.19297 -6.57275,8.70777 -10.22027,19.58462 -10.22627,30.49453 l 0,29.9375 c 0.0137,9.76876 2.92892,19.51551 8.28125,27.6875 -4.43277,11.94098 -6.875,24.80396 -6.875,38.21875 0,60.57329 49.9267,110.5 110.5,110.5 60.5733,0 110.53125,-49.89461 110.53125,-110.5 0,-13.39052 -2.45828,-26.23855 -6.875,-38.15625 5.36373,-8.18942 8.27962,-17.9604 8.28125,-27.75 l 0,-29.9375 c -0.008,-10.91384 -3.66007,-21.79392 -10.23874,-30.50214 -6.57867,-8.70821 -16.04636,-15.19492 -26.54251,-18.18536 l 0,-88.5 c 0.64677,11.25455 5.18118,22.2491 12.65625,30.6875 0,0 10.85985,12.21033 26.28125,25.625 15.4214,13.41467 35.21978,29.67072 63.78125,39.28125 9.09789,3.06424 19.07384,3.4699 28.39049,1.15449 9.31665,-2.31541 17.94207,-7.34397 24.54701,-14.31074 25.90517,-27.33844 28.75017,-53.85811 32.875,-75.8125 4.12483,-21.95439 5.09375,-40.5 5.09375,-40.5 0.62849,-11.86213 -3.08104,-23.9067 -10.27428,-33.35986 -7.19325,-9.45317 -17.81288,-16.2396 -29.41322,-18.79639 C 481.97451,92.170802 416.32521,52.130092 342.96875,39.25 c -0.21946,-0.241611 -0.39398,-0.362347 -0.625,-0.6875 -2.22241,-3.127951 -3.28125,-5.40625 -3.28125,-5.40625 C 335.19511,23.792337 328.44593,15.64189 319.96727,10.096449 311.48861,4.5510067 301.31645,1.6341047 291.1875,1.84375 z m 76.21875,202.375 c 1.83433,1.49981 3.61718,3.03521 5.34375,4.625 -3.10733,6.15857 -4.93825,12.9576 -5.34375,19.84375 z"
     id="path4398"
     inkscape:connector-curvature="0"
     sodipodi:nodetypes="cscsccsccssscscccscccssscccscccscscscsccscsccccc" />
  <path
     style="font-size:medium;font-style:normal;font-variant:normal;font-weight:normal;font-stretch:normal;text-indent:0;text-align:start;text-decoration:none;line-height:normal;letter-spacing:normal;word-spacing:normal;text-transform:none;direction:ltr;block-progression:tb;writing-mode:lr-tb;text-anchor:start;baseline-shift:baseline;color:#000000;fill:#b01d1d;fill-opacity:1;fill-rule:nonzero;stroke:none;stroke-width:0.30741173;marker:none;visibility:visible;display:inline;overflow:visible;enable-background:accumulate;font-family:Sans;-inkscape-font-specification:Sans"
     d="M 292.25 52.46875 C 292.25 52.46875 280.12889 81.912347 258.46875 87.71875 C 180.54905 97.869132 111.71158 150.32284 87.65625 207.96875 C 77.751701 199.86728 69.5625 196.0625 69.5625 196.0625 C 69.5625 214.02041 75.738597 252.45527 97.03125 282.96875 C 130.34232 271.76002 164.84375 230.9375 164.84375 230.9375 C 164.84375 230.9375 153.46922 229.14706 140.75 228.5 C 166.41359 166.03375 235.09421 129.97437 267.75 127.15625 L 267.75 371.84375 L 231 371.84375 L 231 401.78125 L 267.75 401.78125 L 267.75 413.125 C 246.97392 422.54823 232.40625 443.52225 232.40625 467.6875 C 232.40625 500.56985 259.36764 527.53125 292.25 527.53125 C 325.13235 527.53125 352.125 500.56985 352.125 467.6875 C 352.125 443.51705 337.53321 422.54529 316.75 413.125 L 316.75 401.78125 L 353.53125 401.78125 L 353.53125 371.84375 L 316.75 371.84375 L 316.75 127.15625 C 349.58773 129.99007 423.49757 163.06301 445.375 228.6875 C 431.24443 229.40182 417.90625 231.65625 417.90625 231.65625 C 417.90625 231.65625 452.97014 271.04128 486.28125 282.25 C 507.08382 260.29648 510.4375 198.0625 510.4375 198.0625 C 510.4375 198.0625 504.59512 201.64517 496.90625 208.28125 C 472.47163 150.5972 401.43938 98.334031 326.0625 87.71875 C 304.40235 81.912347 292.25 52.46875 292.25 52.46875 z M 292.25 437.75 C 308.95709 437.75 322.1875 450.98044 322.1875 467.6875 C 322.1875 484.39456 308.95709 497.59375 292.25 497.59375 C 275.54297 497.59375 262.34375 484.39456 262.34375 467.6875 C 262.34375 450.98044 275.54297 437.75 292.25 437.75 z "
     id="circle3" />
</svg>

<svg width="580" height="580" viewBox="0 0 580 580" fill="none" xmlns="http://www.w3.org/2000/svg">
<path opacity="0.426087" d="M291.188 1.84375C281.404 2.04817 271.699 5.16343 263.625 10.6916C255.55 16.2198 249.136 24.1404 245.406 33.1875C245.406 33.1875 244.37 35.4742 242.156 38.5938C241.963 38.8666 241.811 38.943 241.625 39.1563C167.929 51.4434 103.714 90.9713 64.7812 145.688C52.3829 146.865 40.4967 152.804 32.1111 162.012C23.7256 171.22 18.9214 183.608 18.9062 196.062C18.9062 225.635 25.4138 268.854 55.5 311.969C61.7171 320.867 70.871 327.676 81.181 331.071C91.491 334.467 102.9 334.431 113.188 330.969C142.451 321.122 162.13 304.171 177.469 290.25C192.808 276.329 203.531 263.625 203.531 263.625C209.356 256.715 213.281 248.22 214.768 239.306C216.254 230.392 215.298 221.082 212.031 212.656C213.684 211.009 215.362 209.374 217.094 207.812V323.156C206.603 326.152 197.143 332.641 190.57 341.349C183.997 350.057 180.35 360.934 180.344 371.844V401.781C180.357 411.55 183.273 421.297 188.625 429.469C184.192 441.41 181.75 454.273 181.75 467.688C181.75 528.261 231.677 578.188 292.25 578.188C352.823 578.188 402.781 528.293 402.781 467.688C402.781 454.297 400.323 441.449 395.906 429.531C401.27 421.342 404.186 411.571 404.188 401.781V371.844C404.179 360.93 400.527 350.05 393.949 341.342C387.37 332.633 377.902 326.147 367.406 323.156V234.656C368.053 245.911 372.587 256.905 380.062 265.344C380.062 265.344 390.922 277.554 406.344 290.969C421.765 304.383 441.564 320.639 470.125 330.25C479.223 333.314 489.199 333.72 498.516 331.404C507.832 329.089 516.458 324.061 523.062 317.094C548.968 289.755 551.813 263.236 555.938 241.281C560.062 219.327 561.031 200.781 561.031 200.781C561.66 188.919 557.95 176.875 550.757 167.421C543.564 157.968 532.944 151.182 521.344 148.625C481.975 92.1708 416.325 52.1301 342.969 39.25C342.749 39.0084 342.575 38.8877 342.344 38.5625C340.121 35.4346 339.062 33.1563 339.062 33.1563C335.195 23.7923 328.446 15.6419 319.967 10.0965C311.489 4.55101 301.316 1.63411 291.188 1.84375ZM367.406 204.219C369.241 205.719 371.023 207.254 372.75 208.844C369.643 215.002 367.812 221.801 367.406 228.688V204.219Z" fill="#ACD8F3"/>
<path d="M292.25 52.4688C292.25 52.4688 280.129 81.9123 258.469 87.7188C180.549 97.8691 111.712 150.323 87.6562 207.969C77.7517 199.867 69.5625 196.062 69.5625 196.062C69.5625 214.02 75.7386 252.455 97.0312 282.969C130.342 271.76 164.844 230.938 164.844 230.938C164.844 230.938 153.469 229.147 140.75 228.5C166.414 166.034 235.094 129.974 267.75 127.156V371.844H231V401.781H267.75V413.125C246.974 422.548 232.406 443.522 232.406 467.688C232.406 500.57 259.368 527.531 292.25 527.531C325.132 527.531 352.125 500.57 352.125 467.688C352.125 443.517 337.533 422.545 316.75 413.125V401.781H353.531V371.844H316.75V127.156C349.588 129.99 423.498 163.063 445.375 228.688C431.244 229.402 417.906 231.656 417.906 231.656C417.906 231.656 452.97 271.041 486.281 282.25C507.084 260.296 510.438 198.062 510.438 198.062C510.438 198.062 504.595 201.645 496.906 208.281C472.472 150.597 401.439 98.334 326.062 87.7188C304.402 81.9123 292.25 52.4688 292.25 52.4688ZM292.25 437.75C308.957 437.75 322.188 450.98 322.188 467.688C322.188 484.395 308.957 497.594 292.25 497.594C275.543 497.594 262.344 484.395 262.344 467.688C262.344 450.98 275.543 437.75 292.25 437.75Z" fill="#B01D1D"/>
</svg>
